lib/assets/buttons/media_item_aux.svg

<svg height="24" viewBox="0 0 24 24" width="24" xmlns="http://www.w3.org/2000/svg">
    <path d="m20.688902 3.3259156c-.419004-.4302154-1.103217-.4351469-1.528231-.0110146l-2.159005 2.4575434 1.231363 1.2643116 2.444992-2.1639066c.425012-.4241325.429885-1.1167185.01092-1.5469338zm-4.606454 3.0608236-1.539112 1.5359196 1.517349 1.5579472 1.539113-1.5359189zm-2.308666 2.3038789-1.539113 1.5359179-1.517348-1.5579473-3.8477794 3.8397983c-1.0004225.998347-1.2098875 2.49768-.6530387 3.723831l-3.2165031 3.209833 1.5173486 1.557949 3.2165032-3.209832c1.2032758.581068 2.6873134.390416 3.6877364-.607937l3.847779-3.839796-1.51735-1.55795 1.539112-1.535918z"
            stroke-width="1.087242" />
</svg>

<?xml version="1.0" encoding="UTF-8" standalone="no"?>
<svg
   xmlns:dc="http://purl.org/dc/elements/1.1/"
   xmlns:cc="http://creativecommons.org/ns#"
   xmlns:rdf="http://www.w3.org/1999/02/22-rdf-syntax-ns#"
   xmlns:svg="http://www.w3.org/2000/svg"
   xmlns="http://www.w3.org/2000/svg"
   version="1.1"
   width="24"
   height="24"
   viewBox="0 0 24 24"
   id="svg916">
  <metadata
     id="metadata922">
    <rdf:RDF>
      <cc:Work
         rdf:about="">
        <dc:format>image/svg+xml</dc:format>
        <dc:type
           rdf:resource="http://purl.org/dc/dcmitype/StillImage" />
        <dc:title></dc:title>
      </cc:Work>
    </rdf:RDF>
  </metadata>
  <defs
     id="defs920" />
  <path
     d="M 20.688902,3.3259156 C 20.269898,2.8957002 19.585685,2.8907687 19.160671,3.314901 l -2.159005,2.4575434 1.231363,1.2643116 2.444992,-2.1639066 c 0.425012,-0.4241325 0.429885,-1.1167185 0.01092,-1.5469338 z M 16.082448,6.3867392 14.543336,7.9226588 16.060685,9.480606 17.599798,7.9446871 Z M 13.773782,8.6906181 12.234669,10.226536 10.717321,8.6685887 6.8695416,12.508387 c -1.0004225,0.998347 -1.2098875,2.49768 -0.6530387,3.723831 L 2.9999998,19.442051 4.5173484,21 7.7338516,17.790168 c 1.2032758,0.581068 2.6873134,0.390416 3.6877364,-0.607937 l 3.847779,-3.839796 -1.51735,-1.55795 1.539112,-1.535918 z"
     id="path914"
     style="stroke-width:1.08724201" />
</svg>
